www/assets/icons/colorize.svg

<svg width="24" height="24" viewBox="0 0 24 24" xmlns="http://www.w3.org/2000/svg" fill='currentColor'><path d="M20.7094 5.63128L18.3694 3.29128C17.9794 2.90128 17.3494 2.90128 16.9594 3.29128L13.8394 6.41128L11.9094 4.50128L10.4994 5.91128L11.9194 7.33128L2.99939 16.2513V21.0013H7.74939L16.6694 12.0813L18.0894 13.5013L19.4994 12.0913L17.5794 10.1713L20.6994 7.05128C21.0994 6.65128 21.0994 6.02128 20.7094 5.63128ZM6.91939 19.0013L4.99939 17.0813L13.0594 9.02128L14.9794 10.9413L6.91939 19.0013Z"/></svg>

<svg xmlns="http://www.w3.org/2000/svg" width="24" height="24" viewBox="0 0 24 24" fill='currentColor'><path d="m20.71 5.631-2.34-2.34a.996.996 0 0 0-1.41 0l-3.12 3.12-1.93-1.91-1.41 1.41 1.42 1.42L3 16.251v4.75h4.75l8.92-8.92 1.42 1.42 1.41-1.41-1.92-1.92 3.12-3.12c.4-.4.4-1.03.01-1.42M6.92 19.001 5 17.081l8.06-8.06 1.92 1.92z"/></svg>
